packages/kaspersky-hexa-ui-icons/src/iconsSVGs/32/OnSpecifiedDays.svg

<svg width="32" height="32" viewBox="0 0 32 32" fill="none" xmlns="http://www.w3.org/2000/svg">
<path d="M13 9C14.1046 9 15 8.10457 15 7C15 5.89543 14.1046 5 13 5C11.8954 5 11 5.89543 11 7C11 8.10457 11.8954 9 13 9Z" fill="black" fill-opacity="0.1"/>
<path d="M9 13C9 14.1046 8.10457 15 7 15C5.89543 15 5 14.1046 5 13C5 11.8954 5.89543 11 7 11C8.10457 11 9 11.8954 9 13Z" fill="black" fill-opacity="0.1"/>
<path d="M9 19C9 20.1046 8.10457 21 7 21C5.89543 21 5 20.1046 5 19C5 17.8954 5.89543 17 7 17C8.10457 17 9 17.8954 9 19Z" fill="black" fill-opacity="0.1"/>
<path d="M15 13C15 14.1046 14.1046 15 13 15C11.8954 15 11 14.1046 11 13C11 11.8954 11.8954 11 13 11C14.1046 11 15 11.8954 15 13Z" fill="black" fill-opacity="0.1"/>
<path d="M13 27C14.1046 27 15 26.1046 15 25C15 23.8954 14.1046 23 13 23C11.8954 23 11 23.8954 11 25C11 26.1046 11.8954 27 13 27Z" fill="black" fill-opacity="0.1"/>
<path d="M21 7C21 8.10457 20.1046 9 19 9C17.8954 9 17 8.10457 17 7C17 5.89543 17.8954 5 19 5C20.1046 5 21 5.89543 21 7Z" fill="black" fill-opacity="0.1"/>
<path d="M19 21C20.1046 21 21 20.1046 21 19C21 17.8954 20.1046 17 19 17C17.8954 17 17 17.8954 17 19C17 20.1046 17.8954 21 19 21Z" fill="black" fill-opacity="0.1"/>
<path d="M21 25C21 26.1046 20.1046 27 19 27C17.8954 27 17 26.1046 17 25C17 23.8954 17.8954 23 19 23C20.1046 23 21 23.8954 21 25Z" fill="black" fill-opacity="0.1"/>
<path d="M25 9C26.1046 9 27 8.10457 27 7C27 5.89543 26.1046 5 25 5C23.8954 5 23 5.89543 23 7C23 8.10457 23.8954 9 25 9Z" fill="black" fill-opacity="0.1"/>
<path d="M27 19C27 20.1046 26.1046 21 25 21C23.8954 21 23 20.1046 23 19C23 17.8954 23.8954 17 25 17C26.1046 17 27 17.8954 27 19Z" fill="black" fill-opacity="0.1"/>
<path d="M25 15C26.1046 15 27 14.1046 27 13C27 11.8954 26.1046 11 25 11C23.8954 11 23 11.8954 23 13C23 14.1046 23.8954 15 25 15Z" fill="black" fill-opacity="0.1"/>
<path d="M9 7C9 8.10457 8.10457 9 7 9C5.89543 9 5 8.10457 5 7C5 5.89543 5.89543 5 7 5C8.10457 5 9 5.89543 9 7Z" fill="black"/>
<path d="M9 25C9 26.1046 8.10457 27 7 27C5.89543 27 5 26.1046 5 25C5 23.8954 5.89543 23 7 23C8.10457 23 9 23.8954 9 25Z" fill="black"/>
<path d="M13 21C13.5338 21 14.0187 20.7909 14.3773 20.4502C14.7609 20.0858 15 19.5708 15 19C15 17.8954 14.1046 17 13 17C12.3315 17 11.7396 17.328 11.3765 17.8318C11.1396 18.1604 11 18.5639 11 19C11 20.1046 11.8954 21 13 21Z" fill="black"/>
<path d="M21 13C21 14.1046 20.1046 15 19 15C17.8954 15 17 14.1046 17 13C17 11.8954 17.8954 11 19 11C20.1046 11 21 11.8954 21 13Z" fill="black"/>
<path d="M25 27C26.1046 27 27 26.1046 27 25C27 23.8954 26.1046 23 25 23C23.8954 23 23 23.8954 23 25C23 26.1046 23.8954 27 25 27Z" fill="black"/>
</svg>

<svg xmlns="http://www.w3.org/2000/svg" width="32" height="32" fill="none" viewBox="0 0 32 32"><path d="M13 9c1.105 0 2-.895 2-2s-.895-2-2-2-2 .895-2 2 .895 2 2 2m-4 4c0 1.105-.895 2-2 2s-2-.895-2-2 .895-2 2-2 2 .895 2 2m0 6c0 1.105-.895 2-2 2s-2-.895-2-2 .895-2 2-2 2 .895 2 2m6-6c0 1.105-.895 2-2 2s-2-.895-2-2 .895-2 2-2 2 .895 2 2m-2 14c1.105 0 2-.895 2-2s-.895-2-2-2-2 .895-2 2 .895 2 2 2m8-20c0 1.105-.895 2-2 2s-2-.895-2-2 .895-2 2-2 2 .895 2 2m-2 14c1.105 0 2-.895 2-2s-.895-2-2-2-2 .895-2 2 .895 2 2 2m2 4c0 1.105-.895 2-2 2s-2-.895-2-2 .895-2 2-2 2 .895 2 2m4-16c1.105 0 2-.895 2-2s-.895-2-2-2-2 .895-2 2 .895 2 2 2m2 10c0 1.105-.895 2-2 2s-2-.895-2-2 .895-2 2-2 2 .895 2 2m-2-4c1.105 0 2-.895 2-2s-.895-2-2-2-2 .895-2 2 .895 2 2 2"/><path fill="#000" d="M9 7c0 1.105-.895 2-2 2s-2-.895-2-2 .895-2 2-2 2 .895 2 2m0 18c0 1.105-.895 2-2 2s-2-.895-2-2 .895-2 2-2 2 .895 2 2m4-4a1.993 1.993 0 0 0 1.377-.55A1.994 1.994 0 0 0 15 19c0-1.105-.895-2-2-2-.668 0-1.26.328-1.623.832A1.99 1.99 0 0 0 11 19c0 1.105.895 2 2 2m8-8c0 1.105-.895 2-2 2s-2-.895-2-2 .895-2 2-2 2 .895 2 2m4 14c1.105 0 2-.895 2-2s-.895-2-2-2-2 .895-2 2 .895 2 2 2"/></svg>
